X: 31700
T: Passing Place
R: reel
M: 4/4
K: Dmajor
|:A2f2 efge|f2eg fdef|gAfA edce|dcdf GFGE|
A2f2 efge|f2ag fdef|gAfA ga{e}f2|1 edced2dB:|2 edced2dA||
|:deac' d'Ac'A|ba (3aaa baed|efgf ga{e}f2|edcd edcA|
DGAc dDcD|BABc dDcD|BAde ga{e}f2|edced2dA:|

